belt.svg

<svg width="34" height="34" viewBox="0 0 34 34" fill="none" xmlns="http://www.w3.org/2000/svg">
<path d="M32.7326 23.6242C30.7733 22.8309 28.7183 22.1858 26.6139 21.6923C26.3043 17.9273 24.7212 14.5385 22.2713 12.4987L27.1799 7.67935C27.2993 7.56208 27.359 7.44487 27.359 7.26903C27.359 7.09318 27.2993 6.97591 27.1799 6.8587L25.5081 5.21734C25.2693 4.98286 24.911 4.98286 24.6722 5.21734L19.4798 10.3338C19.4377 10.177 19.4181 10.0127 19.4181 9.84838V8.85182C20.851 8.03111 21.8063 6.50702 21.8063 4.80702C21.8063 4.78736 21.805 4.76797 21.8047 4.74838C21.805 4.72879 21.8063 4.7094 21.8063 4.68974C21.8063 2.11032 19.6569 0 17.0298 0C14.4027 0 12.2533 2.11032 12.2533 4.68968C12.2533 4.70933 12.2546 4.72872 12.2549 4.74831C12.2546 4.7679 12.2533 4.78729 12.2533 4.80695C12.2533 6.44831 13.2086 8.03111 14.6415 8.85175V9.84831C14.6415 10.4931 14.2236 11.138 13.5668 11.4311C10.2088 13.0796 7.86156 17.0431 7.50458 21.6113C5.30824 22.1288 3.21416 22.8333 1.26733 23.6829C1.08823 23.7415 0.909058 23.9173 0.909058 24.1518C0.909058 24.3863 0.96878 24.5621 1.14788 24.6794L3.53611 26.2621C3.71521 26.3794 3.89438 26.3794 4.07348 26.3208C5.24588 25.9371 6.37986 25.601 7.4851 25.3121C7.5643 28.6109 8.21097 31.5691 9.32757 33.707C9.44702 33.8829 9.62612 34.0001 9.86494 34.0001H12.8503C13.0294 34.0001 13.3279 33.8829 13.3876 33.707C13.4474 33.5312 13.5071 33.2967 13.3876 33.1208C12.6712 31.7725 12.3129 29.838 12.2532 27.4345C15.3579 26.8483 18.7612 26.8483 21.8062 27.4345C21.7465 29.838 21.3883 31.7725 20.6718 33.1208C20.5524 33.2966 20.5524 33.5311 20.6718 33.707C20.7913 33.8829 21.0301 34.0001 21.2092 34.0001H24.1945C24.4333 34.0001 24.6124 33.8829 24.6722 33.707C25.7911 31.5647 26.4383 28.5987 26.5152 25.2916C27.6397 25.5851 28.7932 25.928 29.986 26.3208C30.0457 26.3795 30.1054 26.3795 30.1651 26.3795C30.2845 26.3795 30.4039 26.3208 30.4636 26.2036L32.8518 24.6209C33.0309 24.5036 33.0907 24.3278 33.0907 24.0933C33.0908 23.9173 32.9117 23.6827 32.7326 23.6242V23.6242ZM25.329 21.3966C22.8806 20.8957 20.3887 20.6096 17.9276 20.5367C16.6676 20.4933 15.4121 20.5038 14.1702 20.5697L21.4481 13.4242C23.5975 15.1827 25.0305 18.1138 25.329 21.3966ZM15.4873 7.86177C15.4841 7.85958 15.4808 7.85725 15.4775 7.85513C15.4115 7.82425 15.3471 7.79125 15.2838 7.75685C14.2917 7.20873 13.588 6.21091 13.4663 5.0496C13.466 5.04707 13.4659 5.04455 13.4656 5.04203C13.4605 4.99196 13.4568 4.94155 13.4538 4.89095C13.4531 4.87787 13.4524 4.86486 13.4517 4.85177C13.4492 4.79798 13.4476 4.744 13.4476 4.68961C13.4476 2.75513 15.0596 1.17234 17.03 1.17234C19.0003 1.17234 20.6124 2.75513 20.5526 4.68961C20.5526 6.03786 19.7765 7.26889 18.5226 7.85513C18.4671 7.88242 18.4187 7.91317 18.376 7.94677C17.9598 8.11385 17.5055 8.20682 17.03 8.20682C16.4784 8.20688 15.9551 8.08277 15.4873 7.86177V7.86177ZM14.1042 12.369C15.179 11.8414 15.8357 10.8448 15.8357 9.73104V9.22987C16.2177 9.32736 16.6179 9.37928 17.0298 9.37928C17.4205 9.37928 17.8002 9.33161 18.1642 9.24368V9.73104C18.1642 10.2 18.3433 10.7276 18.5821 11.1379L8.79041 20.7518C9.32778 16.9414 11.3577 13.7172 14.1042 12.369V12.369ZM23.8364 32.8276H22.1049C22.702 31.3034 23.0005 29.3103 23.0005 26.9655C23.0005 26.6724 22.8214 26.4379 22.5228 26.3793C19.0599 25.6172 15.0595 25.6172 11.5368 26.3793C11.2383 26.4379 11.0592 26.6724 11.0592 26.9655C11.0592 29.3103 11.3577 31.3034 11.9548 32.8276H10.2233C9.26799 30.8345 8.73062 28.1379 8.6709 25.0897C8.90972 25.031 9.08882 24.9724 9.32764 24.9138C14.5221 23.8001 19.1792 23.8001 24.3139 24.8552C24.6722 24.9138 25.0304 25.031 25.3886 25.0897C25.329 28.1379 24.7917 30.8345 23.8364 32.8276V32.8276ZM30.1056 25.1482C25.8727 23.7891 22.1146 23.0365 18.408 22.8894C15.3238 22.7516 12.2862 23.0307 9.02923 23.7414C8.67096 23.8586 8.25304 23.9172 7.89484 24.0345C7.88517 24.0393 7.87577 24.0442 7.8663 24.0492C6.62004 24.3561 5.3403 24.7224 4.01389 25.1482L2.76005 24.3275C4.43289 23.6158 6.31398 23.0576 8.20887 22.6527C8.22362 22.6609 8.2383 22.6718 8.25304 22.6862C8.31276 22.6275 8.37249 22.6275 8.43214 22.6275C8.44465 22.6152 8.45723 22.6059 8.46981 22.5983C8.51696 22.5886 8.5641 22.5785 8.61131 22.569C8.73075 22.5103 8.85013 22.4517 8.90985 22.3931L19.7764 11.7828C19.8346 11.7257 19.8782 11.6616 19.909 11.594L25.0903 6.50688L25.9262 7.3276L12.0743 20.9276C11.8952 21.1034 11.8355 21.3379 11.9549 21.5724C12.0743 21.8069 12.3132 21.9242 12.552 21.9242C12.5598 21.9234 12.5677 21.9227 12.5755 21.9219C12.5876 21.9225 12.5996 21.9242 12.6117 21.9242C15.1995 21.6805 17.8714 21.6642 20.515 21.8997C22.0638 22.0438 23.6063 22.2721 25.1292 22.5823C25.3758 22.6342 25.6217 22.6881 25.8665 22.7449H25.8903C27.7345 23.1552 29.5462 23.6842 31.2998 24.3277L30.1056 25.1482Z" fill="#030305"/>
</svg>

<svg width="34" height="34" fill="none" xmlns="http://www.w3.org/2000/svg"><path d="M32.733 23.624a41.7 41.7 0 0 0-6.12-1.932c-.309-3.765-1.892-7.153-4.342-9.193l4.909-4.82a.528.528 0 0 0 .179-.41.528.528 0 0 0-.18-.41l-1.67-1.642a.585.585 0 0 0-.837 0l-5.192 5.117a1.877 1.877 0 0 1-.062-.486v-.996c1.433-.82 2.388-2.345 2.388-4.045l-.001-.059.001-.058c0-2.58-2.15-4.69-4.776-4.69-2.627 0-4.777 2.11-4.777 4.69l.002.058-.002.059c0 1.641.956 3.224 2.389 4.045v.996c0 .645-.418 1.29-1.075 1.583-3.358 1.649-5.705 5.612-6.062 10.18a36.626 36.626 0 0 0-6.238 2.072c-.179.058-.358.234-.358.469 0 .234.06.41.239.527l2.388 1.583a.59.59 0 0 0 .537.059 58.695 58.695 0 0 1 3.412-1.009c.08 3.299.726 6.257 1.843 8.395a.63.63 0 0 0 .537.293h2.985c.18 0 .478-.117.538-.293.06-.176.12-.41 0-.586-.717-1.349-1.075-3.283-1.135-5.687 3.105-.586 6.508-.586 9.553 0-.06 2.404-.418 4.338-1.134 5.687a.524.524 0 0 0 0 .586c.12.176.358.293.537.293h2.986c.238 0 .417-.117.477-.293 1.12-2.142 1.766-5.108 1.843-8.415 1.125.293 2.278.636 3.471 1.029.06.058.12.058.18.058a.33.33 0 0 0 .298-.175l2.388-1.583c.179-.117.239-.293.239-.528 0-.176-.18-.41-.358-.469Zm-7.404-2.227a43.46 43.46 0 0 0-7.401-.86 43.018 43.018 0 0 0-3.758.033l7.278-7.146c2.15 1.759 3.582 4.69 3.881 7.973ZM15.487 7.862l-.01-.007a3.53 3.53 0 0 1-2.011-2.806v-.007c-.005-.05-.01-.1-.012-.151l-.002-.04a3.489 3.489 0 0 1-.004-.161c0-1.935 1.612-3.518 3.582-3.518 1.97 0 3.582 1.583 3.523 3.518 0 1.348-.777 2.579-2.03 3.165a.822.822 0 0 0-.147.092 3.606 3.606 0 0 1-2.889-.085Zm-1.383 4.507c1.075-.528 1.732-1.524 1.732-2.638V9.23a4.824 4.824 0 0 0 2.328.014v.487c0 .469.18.997.418 1.407L8.79 20.752c.538-3.81 2.568-7.035 5.314-8.383Zm9.732 20.459h-1.731c.597-1.525.895-3.518.895-5.863a.573.573 0 0 0-.477-.586c-3.463-.762-7.463-.762-10.986 0a.573.573 0 0 0-.478.586c0 2.345.299 4.338.896 5.863h-1.732c-.955-1.994-1.492-4.69-1.552-7.738.239-.059.418-.118.657-.176 5.194-1.114 9.851-1.114 14.986-.059.358.059.716.176 1.075.235-.06 3.048-.597 5.744-1.553 7.738Zm6.27-7.68c-4.233-1.359-7.991-2.111-11.698-2.259-3.084-.137-6.122.142-9.379.852-.358.118-.776.176-1.134.294l-.029.014a57.92 57.92 0 0 0-3.852 1.1l-1.254-.822c1.673-.711 3.554-1.27 5.449-1.674.015.008.03.019.044.033.06-.058.12-.058.18-.058a.202.202 0 0 1 .037-.03l.141-.029c.12-.059.24-.117.299-.176l10.866-10.61a.628.628 0 0 0 .133-.189l5.181-5.087.836.82-13.852 13.6c-.179.176-.239.41-.12.645.12.235.36.352.598.352l.024-.002.036.002c2.588-.244 5.26-.26 7.903-.024 1.549.144 3.091.372 4.614.682.247.052.493.106.737.163h.024c1.845.41 3.656.94 5.41 1.583l-1.194.82Z" fill="#030305"/></svg>
